symbolic/22x22/apps/qelectrotech.svg

<svg xmlns="http://www.w3.org/2000/svg" width="22" height="22" version="1">
 <rect fill="#e4e4e4" width="20" height="20" x="1" y="1" rx="1" ry="1"/>
 <path fill="#fff" opacity=".2" d="m2 1c-0.554 0-1 0.446-1 1v0.5c0-0.554 0.446-1 1-1h18c0.554 0 1 0.446 1 1v-0.5c0-0.554-0.446-1-1-1h-18z"/>
 <path opacity=".2" d="m2 21.5c-0.554 0-1-0.446-1-1v-0.5c0 0.554 0.446 1 1 1h18c0.554 0 1-0.446 1-1v0.5c0 0.554-0.446 1-1 1h-18z"/>
 <path fill="#474747" d="m11 6c-0.704 0-1.4005 0.2755-1.9375 0.8125-0.474 0.474-0.741 1.0685-0.797 1.6875h-3.2655v6.5h5.5v0.75h0.5v-2h-0.5v0.75h-5v-5.5h2.7655c0.056 0.619 0.323 1.2135 0.797 1.6875 1.074 1.074 2.801 1.074 3.875 0 0.474-0.474 0.741-1.0685 0.797-1.6875h2.7655v5.5h-4.5v-1.5h-0.5v3.5h0.5v-1.5h5v-6.5h-3.2655c-0.056-0.619-0.322-1.2135-0.796-1.6875-0.538-0.537-1.234-0.8125-1.938-0.8125zm0 0.5155c0.4915 0 0.9815 0.158 1.3905 0.4845l-1.39 1.3905-1.3905-1.3905c0.4085-0.3265 0.8985-0.4845 1.3905-0.4845zm-1.75 0.844 1.39 1.3905-1.39 1.39c-0.6525-0.8175-0.6525-1.963 0-2.781zm3.5 0c0.6525 0.818 0.6525 1.9635 0 2.7815l-1.39-1.3905 1.39-1.3905zm-1.75 1.75 1.39 1.3905c-0.818 0.6525-1.9635 0.6525-2.7815 0l1.3905-1.3905z"/>
</svg>

<svg xmlns="http://www.w3.org/2000/svg" width="22" height="22" version="1"><rect fill="#e4e4e4" width="20" height="20" x="1" y="1" rx="1" ry="1"/><path fill="#fff" opacity=".2" d="M2 1c-.554 0-1 .446-1 1v.5c0-.554.446-1 1-1h18c.554 0 1 .446 1 1V2c0-.554-.446-1-1-1H2z"/><path opacity=".2" d="M2 21.5c-.554 0-1-.446-1-1V20c0 .554.446 1 1 1h18c.554 0 1-.446 1-1v.5c0 .554-.446 1-1 1H2z"/><path fill="#474747" d="M11 6c-.704 0-1.4.276-1.938.813A2.72 2.72 0 0 0 8.267 8.5H5V15h5.5v.75h.5v-2h-.5v.75h-5V9h2.765a2.72 2.72 0 0 0 .797 1.688 2.733 2.733 0 0 0 3.876 0A2.72 2.72 0 0 0 13.733 9H16.5v5.5H12V13h-.5v3.5h.5V15h5V8.5h-3.265a2.72 2.72 0 0 0-.796-1.688A2.735 2.735 0 0 0 11 6zm0 .515c.491 0 .982.159 1.39.485L11 8.39 9.61 7A2.215 2.215 0 0 1 11 6.515zm-1.75.845 1.39 1.39-1.39 1.39a2.22 2.22 0 0 1 0-2.781zm3.5 0a2.22 2.22 0 0 1 0 2.781l-1.39-1.39 1.39-1.391zM11 9.11l1.39 1.39a2.22 2.22 0 0 1-2.781 0l1.39-1.39z"/></svg>
